/* XPM */
static char *_xpm[] = {
"64 64 6 1",
"  c #3A3A3A",
". c #4A4A4A",
"+ c #5A5A5A",
"@ c #1A3A1A",
"# c #2A4A2A",
"$ c #3A5A3A",
"++++++++++++++++++++++++++++++++................................",
"++++++++++++++++++++++++++++++++................................",
"++++++++++++++++++++++++++++++++@@@@@@@@@@@@@@@@@@@@@@@@@@@@@@@@",
"++++++++++++++++++++++++++++++++@@@@@@@@@@@@@@@@@@@@@@@@@@@@@@@@",
"++++++++++++++++++++++++++++++++@@@@@@@@@@@@@@@@@@@@@@@@@@@@@@@@",
"++++++++++++++++++++++++++++++++@@@@@@@@@@@@@@@@@@@@@@@@@@@@@@@@",
"                                                                ",
"                                                                ",
"@@@@@@@@@@@@@@@@################################$$$$$$$$$$$$$$$$",
"@@@@@@@@@@@@@@@@################################$$$$$$$$$$$$$$$$",
"@@@@@@@@@@@@@@@@################################$$$$$$$$$$$$$$$$",
"@@@@@@@@@@@@@@@@################################$$$$$$$$$$$$$$$$",
"@@@@@@@@@@@@@@@@################################$$$$$$$$$$$$$$$$",
"@@@@@@@@@@@@@@@@################################$$$$$$$$$$$$$$$$",
"                                                                ",
"@ #                                                             ",
"................................++++++++++++++++++++++++++++++++",
"................................++++++++++++++++++++++++++++++++",
"................................++++++++++++++++++++++++++++++++",
"................................++++++++++++++++++++++++++++++++",
"................................++++++++++++++++++++++++++++++++",
"................................++++++++++++++++++++++++++++++++",
"                                                                ",
" $#                                                             ",
"$$$$$$$$$$$$$$$$@@@@@@@@@@@@@@@@@@@@@@@@@@@@@@@@@@@@@@@@@@@@@@@@",
"$$$$$$$$$$$$$$$$@@@@@@@@@@@@@@@@@@@@@@@@@@@@@@@@@@@@@@@@@@@@@@@@",
"$$$$$$$$$$$$$$$$@@@@@@@@@@@@@@@@@@@@@@@@@@@@@@@@@@@@@@@@@@@@@@@@",
"$$$$$$$$$$$$$$$$@@@@@@@@@@@@@@@@@@@@@@@@@@@@@@@@@@@@@@@@@@@@@@@@",
"$$$$$$$$$$$$$$$$@@@@@@@@@@@@@@@@@@@@@@@@@@@@@@@@@@@@@@@@@@@@@@@@",
"$$$$$$$$$$$$$$$$@@@@@@@@@@@@@@@@@@@@@@@@@@@@@@@@@@@@@@@@@@@@@@@@",
"                                                                ",
"  $#                                                            ",
"++++++++++++++++++++++++++++++++................................",
"++++++++++++++++++++++++++++++++................................",
"++++++++++++++++++++++++++++++++@@@@@@@@@@@@@@@@@@@@@@@@@@@@@@@@",
"++++++++++++++++++++++++++++++++@@@@@@@@@@@@@@@@@@@@@@@@@@@@@@@@",
"++++++++++++++++++++++++++++++++@@@@@@@@@@@@@@@@@@@@@@@@@@@@@@@@",
"++++++++++++++++++++++++++++++++@@@@@@@@@@@@@@@@@@@@@@@@@@@@@@@@",
"                                                                ",
"   $#                                                           ",
"@@@@@@@@@@@@@@@@################################$$$$$$$$$$$$$$$$",
"@@@@@@@@@@@@@@@@################################$$$$$$$$$$$$$$$$",
"@@@@@@@@@@@@@@@@################################$$$$$$$$$$$$$$$$",
"@@@@@@@@@@@@@@@@################################$$$$$$$$$$$$$$$$",
"@@@@@@@@@@@@@@@@################################$$$$$$$$$$$$$$$$",
"@@@@@@@@@@@@@@@@################################$$$$$$$$$$$$$$$$",
"                                                                ",
"    $#                                                          ",
"................................++++++++++++++++++++++++++++++++",
"................................++++++++++++++++++++++++++++++++",
"................................++++++++++++++++++++++++++++++++",
"................................++++++++++++++++++++++++++++++++",
"................................++++++++++++++++++++++++++++++++",
"................................++++++++++++++++++++++++++++++++",
"                                                                ",
"     $#                                                         ",
"$$$$$$$$$$$$$$$$@@@@@@@@@@@@@@@@@@@@@@@@@@@@@@@@@@@@@@@@@@@@@@@@",
"$$$$$$$$$$$$$$$$@@@@@@@@@@@@@@@@@@@@@@@@@@@@@@@@@@@@@@@@@@@@@@@@",
"$$$$$$$$$$$$$$$$@@@@@@@@@@@@@@@@@@@@@@@@@@@@@@@@@@@@@@@@@@@@@@@@",
"$$$$$$$$$$$$$$$$@@@@@@@@@@@@@@@@@@@@@@@@@@@@@@@@@@@@@@@@@@@@@@@@",
"$$$$$$$$$$$$$$$$@@@@@@@@@@@@@@@@@@@@@@@@@@@@@@@@@@@@@@@@@@@@@@@@",
"$$$$$$$$$$$$$$$$@@@@@@@@@@@@@@@@@@@@@@@@@@@@@@@@@@@@@@@@@@@@@@@@",
"                                                                ",
"      $#                                                        "
};
