/* XPM */
static char *_xpm[] = {
"64 64 7 1",
"  c #2A1A1A",
". c #3A2A2A",
"+ c #4A3A3A",
"@ c #5A4A4A",
"# c #6A5A5A",
"$ c #7A6A6A",
"% c #1A0A0A",
"$$$$$$$$$$$$$$$$########@@@@@@@@++++++.........                 ",
"$$$$$$$$$$$$$$$$########@@@@@@@@++++++.........                 ",
"$$$$$$$$$$$$$$$$########@@@@@@@@++++++.........                 ",
"$$$$$$$$$$$$$$$########@@@@@@@@++++++.........                  ",
"$$$$$$$$$$$$$$$########@@@@@@@@++++++.........                  ",
"$$$$$$$$$$$$$$$########@@@@@@@@++++++.........                  ",
"                                                        %       ",
"                                                        %       ",
"++++++@@@@@@########$$$$$$$$$$$$$$$$$$$$$$$$$$$$$$$$$$$$$$$$$$$$",
"++++++@@@@@@########$$$$$$$$$$$$$$$$$$$$$$$$$$$$$$$$$$$$$$$$$$$$",
"++++++@@@@@@########$$$$$$$$$$$$$$$$$$$$$$$$$$$$$$$$$$$$$$$$$$$$",
"+++++@@@@@@########$$$$$$$$$$$$$$$$$$$$$$$$$$$$$$$$$$$$$$$$$$$$.",
"+++++@@@@@@########$$$$$$$$$$$$$$$$$$$$$$$$$$$$$$$$$$$$$$$$$$$$.",
"+++++@@@@@@########$$$$$$$$$$$$$$$$$$$$$$$$$$$$$$$$$$$$$$$$$$$$.",
"                                                       %        ",
"                                                       %        ",
"..........++++++@@@@@@########$$$$$$$$$$$$$$$$$$$$$$$$$$$$$$....",
"..........++++++@@@@@@########$$$$$$$$$$$$$$$$$$$$$$$$$$$$$$....",
"..........++++++@@@@@@########$$$$$$$$$$$$$$$$$$$$$$$$$$$$$$....",
".........++++++@@@@@@########$$$$$$$$$$$$$$$$$$$$$$$$$$$$$$.....",
".........++++++@@@@@@########$$$$$$$$$$$$$$$$$$$$$$$$$$$$$$.....",
".........++++++@@@@@@########$$$$$$$$$$$$$$$$$$$$$$$$$$$$$$.....",
"                                                      %         ",
"                                                      %         ",
"$$$$$$$$$$$$$$########@@@@@@++++++..........                    ",
"$$$$$$$$$$$$$$########@@@@@@++++++..........                    ",
"$$$$$$$$$$$$$$########@@@@@@++++++..........                    ",
"$$$$$$$$$$$$$########@@@@@@++++++..........                     ",
"$$$$$$$$$$$$$########@@@@@@++++++..........                     ",
"$$$$$$$$$$$$$########@@@@@@++++++..........                     ",
"                                                     %          ",
"                                                     %          ",
"++++++@@@@@@########$$$$$$$$$$$$$$$$$$$$$$$$$$$$$$$$$$$$$$$$$$$$",
"++++++@@@@@@########$$$$$$$$$$$$$$$$$$$$$$$$$$$$$$$$$$$$$$$$$$$$",
"++++++@@@@@@########$$$$$$$$$$$$$$$$$$$$$$$$$$$$$$$$$$$$$$$$$$$$",
"+++++@@@@@@########$$$$$$$$$$$$$$$$$$$$$$$$$$$$$$$$$$$$$$$$$$$$.",
"+++++@@@@@@########$$$$$$$$$$$$$$$$$$$$$$$$$$$$$$$$$$$$$$$$$$$$.",
"+++++@@@@@@########$$$$$$$$$$$$$$$$$$$$$$$$$$$$$$$$$$$$$$$$$$$$.",
"                                                    %           ",
"                                                    %           ",
"..........++++++@@@@@@########$$$$$$$$$$$$$$$$$$$$$$$$$$$$$$....",
"..........++++++@@@@@@########$$$$$$$$$$$$$$$$$$$$$$$$$$$$$$....",
"..........++++++@@@@@@########$$$$$$$$$$$$$$$$$$$$$$$$$$$$$$....",
".........++++++@@@@@@########$$$$$$$$$$$$$$$$$$$$$$$$$$$$$$.....",
".........++++++@@@@@@########$$$$$$$$$$$$$$$$$$$$$$$$$$$$$$.....",
".........++++++@@@@@@########$$$$$$$$$$$$$$$$$$$$$$$$$$$$$$.....",
"                                                   %            ",
"                                                   %            ",
"$$$$$$$$$$$$$$########@@@@@@++++++..........                    ",
"$$$$$$$$$$$$$$########@@@@@@++++++..........                    ",
"$$$$$$$$$$$$$$########@@@@@@++++++..........                    ",
"$$$$$$$$$$$$$########@@@@@@++++++..........                     ",
"$$$$$$$$$$$$$########@@@@@@++++++..........                     ",
"$$$$$$$$$$$$$########@@@@@@++++++..........                     ",
"                                                  %             ",
"                                                  %             ",
"++++++@@@@@@########$$$$$$$$$$$$$$$$$$$$$$$$$$$$$$$$$$$$$$$$$$$$",
"++++++@@@@@@########$$$$$$$$$$$$$$$$$$$$$$$$$$$$$$$$$$$$$$$$$$$$",
"++++++@@@@@@########$$$$$$$$$$$$$$$$$$$$$$$$$$$$$$$$$$$$$$$$$$$$",
"+++++@@@@@@########$$$$$$$$$$$$$$$$$$$$$$$$$$$$$$$$$$$$$$$$$$$$.",
"+++++@@@@@@########$$$$$$$$$$$$$$$$$$$$$$$$$$$$$$$$$$$$$$$$$$$$.",
"+++++@@@@@@########$$$$$$$$$$$$$$$$$$$$$$$$$$$$$$$$$$$$$$$$$$$$.",
"                                                 %              ",
"                                                 %              "
};
